X:0821
T:Miss Corbet's Reel.
M:C
L:1/8
Q:1/2=104
I: :: ||
Z:Jack Campin * www.campin.me.uk * 2009
K:D
A|D/D/D FD ADFD|E=cGc EccE|D/D/D FD ADFD|BdAd FDD:|
g|fdag     fddf|e=cgf ecce|fdag     fdec|dBAd FDD
g|fdag     fddf|e=cgf ecce|dfeg     fagb|afge fdd|]

